X: 3155
T: The AULD BRIG O'AYR
Q: "Strathspey."
R: Strathspey.
%R: strathspey
B: James Kerr "Merry Melodies" v.3 p.18 #155
Z: 2016 John Chambers <jc:trillian.mit.edu>
M: C
L: 1/16
K: F
[|\
vC4- C3uD FF3 F3G | A3AG3F (DF3) (CA,3) |\
C4- C3D FF3 F3G | A3G (Ac3) d4 (3(d2e2f2) |\
C4- C3D FF3 F3G | A3AG3F (Ac3) (cf3) |\
d3ef3d cA3 A3F | G3A BAGF D4- D2c2 |]
Ac3 c3d f3ed3c | A3AG3F (DF3) (CA,3) |\
Ac3 c3d f3ed3c | A3G (Ac3) d4- d2c2 |\
Ac3 c3d f3ed3c | A3A G3F (Ac3) (cf3) |\
d3ef3d cA3 AF3 | G3A BAGF D4- D2C2 |]

%%sep 1 1 500
%%sep 1 1 500

